Newaita/actions/16/draw-bezier-curves.svg

<svg height="16" viewBox="0 0 16 16" width="16" xmlns="http://www.w3.org/2000/svg"><g fill="#424242"><path d="m9.921875 9.386719c-.367187 0-.660156.292969-.660156.660156v3.308594c0 .367187.292969.660156.660156.660156h3.308594c.367187 0 .660156-.292969.660156-.660156v-3.308594c0-.367187-.292969-.660156-.660156-.660156zm.992187 1.324219h1.324219c.183594 0 .332031.144531.332031.328124v1.324219c0 .183594-.148437.332031-.332031.332031h-1.324219c-.183593 0-.328124-.148437-.328124-.332031v-1.324219c0-.183593.144531-.328124.328124-.328124zm0 0"/><path d="m9.921875 11.371094v.660156c0 .183594-.148437.332031-.328125.332031h-3.308594c-.183594 0-.332031-.148437-.332031-.332031v-.660156c0-.183594.148437-.332032.332031-.332032h3.308594c.179688 0 .328125.148438.328125.332032zm0 0"/><path d="m4.300781 9.386719c-1.285156 0-2.316406 1.03125-2.316406 2.316406 0 1.28125 1.03125 2.3125 2.316406 2.3125 1.28125 0 2.3125-1.03125 2.3125-2.3125 0-1.285156-1.03125-2.316406-2.3125-2.316406zm0 1.324219c.550781 0 .992188.441406.992188.992187 0 .546875-.441407.992187-.992188.992187s-.992187-.445312-.992187-.992187c0-.550781.441406-.992187.992187-.992187zm0 0"/><path d="m11.578125 2.109375c-1.285156 0-2.316406 1.03125-2.316406 2.316406 0 1.28125 1.03125 2.3125 2.316406 2.3125 1.28125 0 2.3125-1.03125 2.3125-2.3125 0-1.285156-1.03125-2.316406-2.3125-2.316406zm0 1.324219c.546875 0 .992187.441406.992187.992187s-.445312.992188-.992187.992188c-.550781 0-.992187-.441407-.992187-.992188s.441406-.992187.992187-.992187zm0 0"/><path d="m4.300781 3.765625c-.246093 0-.472656.140625-.585937.359375-.113282.21875-.09375.480469.050781.683594.789063 1.109375 1.117187 1.890625 1.117187 2.550781s-.308593 1.328125-1.089843 2.265625c-.152344.179688-.199219.429688-.117188.65625.078125.222656.273438.382812.507813.421875s.472656-.050781.621094-.234375c.875-1.046875 1.394531-2.03125 1.394531-3.109375 0-.753906-.25-1.488281-.695313-2.277344h4.417969c.238281.003907.460937-.121093.578125-.324219.121094-.207031.121094-.460937 0-.664062-.117188-.207031-.339844-.332031-.578125-.328125zm0 0"/></g></svg>

<svg xmlns="http://www.w3.org/2000/svg" xmlns:xlink="http://www.w3.org/1999/xlink" width="16px" height="16px" viewBox="0 0 16 16" version="1.1">
<g id="surface1">
     <defs>
  <style id="current-color-scheme" type="text/css">
   .ColorScheme-Text { color:#424242; } .ColorScheme-Highlight { color:#eeeeee; }
  </style>
 </defs>
<path style="fill:currentColor" class="ColorScheme-Text" d="M 9.921875 9.386719 C 9.554688 9.386719 9.261719 9.679688 9.261719 10.046875 L 9.261719 13.355469 C 9.261719 13.722656 9.554688 14.015625 9.921875 14.015625 L 13.230469 14.015625 C 13.597656 14.015625 13.890625 13.722656 13.890625 13.355469 L 13.890625 10.046875 C 13.890625 9.679688 13.597656 9.386719 13.230469 9.386719 Z M 10.914062 10.710938 L 12.238281 10.710938 C 12.421875 10.710938 12.570312 10.855469 12.570312 11.039062 L 12.570312 12.363281 C 12.570312 12.546875 12.421875 12.695312 12.238281 12.695312 L 10.914062 12.695312 C 10.730469 12.695312 10.585938 12.546875 10.585938 12.363281 L 10.585938 11.039062 C 10.585938 10.855469 10.730469 10.710938 10.914062 10.710938 Z M 10.914062 10.710938 "/>
     <defs>
  <style id="current-color-scheme" type="text/css">
   .ColorScheme-Text { color:#424242; } .ColorScheme-Highlight { color:#eeeeee; }
  </style>
 </defs>
<path style="fill:currentColor" class="ColorScheme-Text" d="M 9.921875 11.371094 L 9.921875 12.03125 C 9.921875 12.214844 9.773438 12.363281 9.59375 12.363281 L 6.285156 12.363281 C 6.101562 12.363281 5.953125 12.214844 5.953125 12.03125 L 5.953125 11.371094 C 5.953125 11.1875 6.101562 11.039062 6.285156 11.039062 L 9.59375 11.039062 C 9.773438 11.039062 9.921875 11.1875 9.921875 11.371094 Z M 9.921875 11.371094 "/>
     <defs>
  <style id="current-color-scheme" type="text/css">
   .ColorScheme-Text { color:#424242; } .ColorScheme-Highlight { color:#eeeeee; }
  </style>
 </defs>
<path style="fill:currentColor" class="ColorScheme-Text" d="M 4.300781 9.386719 C 3.015625 9.386719 1.984375 10.417969 1.984375 11.703125 C 1.984375 12.984375 3.015625 14.015625 4.300781 14.015625 C 5.582031 14.015625 6.613281 12.984375 6.613281 11.703125 C 6.613281 10.417969 5.582031 9.386719 4.300781 9.386719 Z M 4.300781 10.710938 C 4.851562 10.710938 5.292969 11.152344 5.292969 11.703125 C 5.292969 12.25 4.851562 12.695312 4.300781 12.695312 C 3.75 12.695312 3.308594 12.25 3.308594 11.703125 C 3.308594 11.152344 3.75 10.710938 4.300781 10.710938 Z M 4.300781 10.710938 "/>
     <defs>
  <style id="current-color-scheme" type="text/css">
   .ColorScheme-Text { color:#424242; } .ColorScheme-Highlight { color:#eeeeee; }
  </style>
 </defs>
<path style="fill:currentColor" class="ColorScheme-Text" d="M 11.578125 2.109375 C 10.292969 2.109375 9.261719 3.140625 9.261719 4.425781 C 9.261719 5.707031 10.292969 6.738281 11.578125 6.738281 C 12.859375 6.738281 13.890625 5.707031 13.890625 4.425781 C 13.890625 3.140625 12.859375 2.109375 11.578125 2.109375 Z M 11.578125 3.433594 C 12.125 3.433594 12.570312 3.875 12.570312 4.425781 C 12.570312 4.976562 12.125 5.417969 11.578125 5.417969 C 11.027344 5.417969 10.585938 4.976562 10.585938 4.425781 C 10.585938 3.875 11.027344 3.433594 11.578125 3.433594 Z M 11.578125 3.433594 "/>
     <defs>
  <style id="current-color-scheme" type="text/css">
   .ColorScheme-Text { color:#424242; } .ColorScheme-Highlight { color:#eeeeee; }
  </style>
 </defs>
<path style="fill:currentColor" class="ColorScheme-Text" d="M 4.300781 3.765625 C 4.054688 3.765625 3.828125 3.90625 3.714844 4.125 C 3.601562 4.34375 3.621094 4.605469 3.765625 4.808594 C 4.554688 5.917969 4.882812 6.699219 4.882812 7.359375 C 4.882812 8.019531 4.574219 8.6875 3.792969 9.625 C 3.640625 9.804688 3.59375 10.054688 3.675781 10.28125 C 3.753906 10.503906 3.949219 10.664062 4.183594 10.703125 C 4.417969 10.742188 4.65625 10.652344 4.804688 10.46875 C 5.679688 9.421875 6.199219 8.4375 6.199219 7.359375 C 6.199219 6.605469 5.949219 5.871094 5.503906 5.082031 L 9.921875 5.082031 C 10.160156 5.085938 10.382812 4.960938 10.5 4.757812 C 10.621094 4.550781 10.621094 4.296875 10.5 4.09375 C 10.382812 3.886719 10.160156 3.761719 9.921875 3.765625 Z M 4.300781 3.765625 "/>
</g>
</svg>
